X: 104
T: Life Is the Greatest Gift of All
L: 1/4
M: 3/2
K: C treble % abcm2ps: must be forced because too low in places
Q: 1/2=96
"C" C2 | "C" [EC2] G [c2E2] "C" [G2C2] | "F" [AC2] c [G2C2] "F" [F2A,2] | "C" [EG,2] C [C2F,2] "G" [B,2G,2] |
w: Life is the great-est gift of all the rich-es on this
"C" [C4G,4] "C" C2 | "C" [EC2] G  [c2C2] "C" [G2C2] | "F" [AC2] c [G2C2] "F" [F2C2] |
w: earth; life and its crea-tures, great and small, of
"C" [EC] [CA,] [C2G,2] "G" [B,2G,2] | "C" [C4G,4] "G" [D2B,2] | "C" [EC2] C [C2G,2] "G" [D2^G,2] |
w: high and low-ly birth; so trea-sure it and
"Am" [EA,2] C [C2=G,2] "G" [D2A,2] | "C" [EG,] [GC] [c2F2] "F" [c2F2] | "C" [c4E4] |]
w: mea-sure it with deeds of shin-ing worth.

%% transpose -2
